X:1
T:Title
%%score 1 { ( 2 5 ) | ( 3 4 ) }
L:1/8
M:6/8
K:G
V:1 treble nm="Akkordion"
V:2 treble nm="Grand Piano"
V:5 treble 
V:3 bass 
V:4 bass 
V:1
 z3 z2[Q:1/4=72] D | GGD A2 D | B3- B2 B | EEE A2 G |[M:5/8] F-F- F3 |[M:1/8] D | %6
[M:3/4] BB B ^c2 F | d4- dd | dB G F2 E |[M:5/8] D-D- D3 |[M:1/8] z |[M:3/4] z6 | z6 |[M:5/8] z5 | %14
[M:1/8] z |[M:3/4] z6 | z6 |[M:5/8] z5 |] %18
V:2
 z6 | [DGBd]3 [DFcd]3 | [DGBd]6 | [^CGB]3 [CGA]3 |[M:5/8] [DFA]-[DFA]- [DFA]3 |[M:1/8] z | %6
[M:3/4] [DGB]3 [EF_B^c]3 | [FBd]6 | [DEGB]3 [DFA]2 [A,^CG] |[M:5/8] F-F- F3 |[M:1/8] D | %11
[M:3/4] B2 B G2 D | d2 d B2 G/G/ |[M:5/8] [Gc][Gd][Ge] d2 |[M:1/8] B/d/ | %15
[M:3/4] .[DAd]2 [DGB] [DFA]2 [F,D] | z2 z .A3 |[M:5/8] G-G- G3 |] %18
V:3
 z3 z2 D, | G,G,D, A,2 D, | B,3- B,2 B, | E,E,E, A,2 G, |[M:5/8] F,-F,- F,3 |[M:1/8] D, | %6
[M:3/4] G,3 F,2 F,, | B,,6 | E,3 A,,2 A,, |[M:5/8] [D,A,D]-[D,A,D]- [D,A,D]3 |[M:1/8] [G,B,] | %11
[M:3/4][K:treble] [G,DG]2 [G,DG] [G,B,D]2 [G,B,] | %12
 [G,B,G]2 [G,B,G] [G,DG]2[K:bass] [=F,B,D]/[F,B,D]/ |[M:5/8] [E,C][D,B,][C,C][K:treble] [G,B,G]2 | %14
[M:1/8] [G,DG]/[G,B,G]/ |[M:3/4] z c[K:bass] G, D,2 D,/C,/ | z2 z G, z2 | %17
[M:5/8] [G,B,D]-[G,B,D]- [G,B,D]3 |] %18
V:4
 x6 | x6 | x6 | x6 |[M:5/8] x5 |[M:1/8] x |[M:3/4] x6 | x6 | x6 |[M:5/8] x5 |[M:1/8] x | %11
[M:3/4][K:treble] x6 | x5[K:bass] x |[M:5/8] x3[K:treble] x2 |[M:1/8] x | %15
[M:3/4] F,2[K:bass] z2 z2 | [B,,G,]2 [B,,G,]/[C,G,]/ [D,D]2 [D,CD] |[M:5/8] x5 |] %18
V:5
 x6 | x6 | x6 | x6 |[M:5/8] x5 |[M:1/8] x |[M:3/4] x6 | x6 | x6 |[M:5/8] x5 |[M:1/8] x | %11
[M:3/4] x6 | x6 |[M:5/8] x5 |[M:1/8] x |[M:3/4] x6 | [Dd]2 [DG]<.[Ec] F,A |[M:5/8] x5 |] %18

